startshape main
CF::MinimumSize = 0.1
CF::Symmetry = CF::Dihedral, 2
shape main {
      loop 3 [x 20 flip 1..90 s 0.95]
           RandomCurve []
      }


shape RandomCurve
rule {
     curve(.995, .5 .. .9) [flip 90]
     curve(.995, .5 .. .9) [flip 180]
}

shape curve(number shrink, number turn)
{
  SQUARE []
  curve(=) [[y 0.5 r turn s shrink y 0.5]]
}