startshape blah
//CF::Background = [hue 120 sat 1 b -0.5]
CF::MinimumSize = 0.1
//CF::Tile = [s 200]
//CF::Size = [s 1000 1000]

shape blah {
      loop 10 [x 15..40 flip 1..60 s 0.995 .. 1.1]
           RandomCurve []
      }


shape RandomCurve
rule {
     curve(.995, .4..0.9) [flip 0]
     curve(.995, .4..2.2) [flip 90]   
}

shape curve(number shrink, number turn)
{
  SQUARE []
  curve(=) [[y 0.5 r turn s  shrink y 0.5]]
}